assets/Beranda/rekening.svg

<?xml version="1.0" encoding="utf-8"?>
<!-- Generator: Adobe Illustrator 16.0.0, SVG Export Plug-In . SVG Version: 6.00 Build 0)  -->
<!DOCTYPE svg PUBLIC "-//W3C//DTD SVG 1.1//EN" "http://www.w3.org/Graphics/SVG/1.1/DTD/svg11.dtd">
<svg version="1.1" id="Layer_1" xmlns="http://www.w3.org/2000/svg" xmlns:xlink="http://www.w3.org/1999/xlink" x="0px" y="0px"
	 width="512px" height="512px" viewBox="0 0 512 512" enable-background="new 0 0 512 512" xml:space="preserve">
<path fill="#387EF5" d="M512,256C512,114.638,397.362,0,256,0C114.638,0,0,114.638,0,256c0,141.362,114.638,256,256,256
	C397.362,512,512,397.362,512,256z"/>
<path fill="#A78966" d="M136.523,232.696v-35.063H89.771v169.472c0,19.366,15.699,35.063,35.063,35.063h298.039
	c3.227,0,5.844-2.614,5.844-5.842V232.696H136.523z M259.244,367.105c-25.821,0-46.751-20.93-46.751-46.752
	c0-25.819,20.931-46.75,46.751-46.75c25.821,0,46.751,20.931,46.751,46.75C305.995,346.176,285.065,367.105,259.244,367.105z"/>
<path fill="#57565C" d="M154.056,162.57h-29.222c-19.363,0-35.063,15.699-35.063,35.063c0,19.366,15.699,35.063,35.063,35.063
	h29.222v-64.282h11.686v-5.844H154.056z"/>
<path fill="#57565C" d="M422.873,162.57h-28.81l20.687,35.847c1.614,2.795,0.657,6.369-2.138,7.983l-45.547,26.296h61.651v-64.282
	C428.717,165.188,426.1,162.57,422.873,162.57z"/>
<path fill="#FFB655" d="M414.75,198.417l-20.687-35.847L338.78,66.823c-1.613-2.792-5.188-3.751-7.982-2.139L161.242,162.57
	l-43.027,24.838c-2.798,1.611-3.758,5.182-2.147,7.98c0,0,0,0,0.003,0.003l21.562,37.307h40.499l-17.063-29.513l40.439-23.375
	l17.53,30.331l-39.035,22.557h187.063l45.547-26.299C415.407,204.786,416.364,201.212,414.75,198.417z M282.508,133.042
	c5.083-2.953,11.311-3.15,16.567-0.52c0.608-9.664,8.933-17.005,18.597-16.4c9.663,0.607,17.004,8.932,16.399,18.595
	c-0.607,9.664-8.934,17.005-18.596,16.401c-2.33-0.148-4.608-0.758-6.7-1.795c-0.607,9.664-8.934,17.003-18.598,16.395
	c-9.665-0.607-17.003-8.934-16.396-18.598C274.152,141.262,277.427,135.977,282.508,133.042z"/>
<path fill="#FFDE55" d="M306.456,139.465c1.715,2.992,2.526,6.416,2.337,9.857c8.674,4.306,19.196,0.766,23.502-7.907
	c4.305-8.671,0.766-19.193-7.908-23.499c-8.673-4.306-19.192-0.766-23.498,7.908c-1.037,2.089-1.647,4.368-1.795,6.697
	C302.166,134.079,304.724,136.489,306.456,139.465z"/>
<path fill="#FF6243" d="M300.04,163.411c5.098-2.927,8.381-8.221,8.738-14.089c0.43-7.039-3.391-13.656-9.703-16.801
	c-8.673-4.306-19.192-0.765-23.498,7.908c-4.303,8.673-0.764,19.196,7.91,23.499C288.745,166.538,294.957,166.343,300.04,163.411z"
	/>
<path fill="#FFE477" d="M201.508,179.811l-40.441,23.375l17.064,29.511H180l39.038-22.557L201.508,179.811z"/>
<path fill="#FFD422" d="M305.995,320.354c0,25.822-20.93,46.752-46.751,46.752c-25.821,0-46.751-20.93-46.751-46.752
	c0-25.817,20.931-46.75,46.751-46.75C285.065,273.604,305.995,294.536,305.995,320.354z"/>
<path fill="#D1D3D4" d="M363.384,176.597l-97.186,56.1h-5.376l-4.5-7.771l101.216-58.44L363.384,176.597z"/>
<path fill="#D1D3D4" d="M375.069,196.873l-62.004,35.823H301.32l-2.922-5.084l70.829-40.907L375.069,196.873z"/>
<g>
	<path fill="#FF6243" d="M259.244,302.824c3.228,0,5.845,2.614,5.845,5.845h11.688c-0.03-7.403-4.708-13.99-11.688-16.457v-6.921
		H253.4v6.921c-9.11,3.209-13.894,13.196-10.685,22.306c2.467,7.011,9.098,11.697,16.529,11.681c3.228,0,5.845,2.617,5.845,5.845
		s-2.617,5.844-5.845,5.844c-3.227,0-5.844-2.616-5.844-5.844h-11.688c0.031,7.403,4.709,13.988,11.688,16.457v6.917h11.689V348.5
		c9.11-3.209,13.895-13.196,10.686-22.31c-2.468-7.01-9.098-11.693-16.53-11.681c-3.227,0-5.844-2.614-5.844-5.841
		C253.4,305.438,256.018,302.824,259.244,302.824z"/>
	<path fill="#FF6243" d="M282.619,314.51h11.688v11.688h-11.688V314.51z"/>
	<path fill="#FF6243" d="M224.182,314.51h11.688v11.688h-11.688V314.51z"/>
</g>
</svg>

<?xml version="1.0" encoding="UTF-8" standalone="no"?>
<!DOCTYPE svg PUBLIC "-//W3C//DTD SVG 1.1//EN" "http://www.w3.org/Graphics/SVG/1.1/DTD/svg11.dtd">
<svg width="100%" height="100%" viewBox="0 0 2845 2845" version="1.1" xmlns="http://www.w3.org/2000/svg" xmlns:xlink="http://www.w3.org/1999/xlink" xml:space="preserve" xmlns:serif="http://www.serif.com/" style="fill-rule:evenodd;clip-rule:evenodd;stroke-linejoin:round;stroke-miterlimit:1.41421;">
    <g transform="matrix(5.55556,0,0,5.55556,0,0)">
        <path d="M512,256C512,114.638 397.362,0 256,0C114.638,0 0,114.638 0,256C0,397.362 114.638,512 256,512C397.362,512 512,397.362 512,256Z" style="fill:rgb(56,126,245);fill-rule:nonzero;"/>
        <path d="M136.523,232.696L136.523,197.633L89.771,197.633L89.771,367.105C89.771,386.471 105.47,402.168 124.834,402.168L422.873,402.168C426.1,402.168 428.717,399.554 428.717,396.326L428.717,232.696L136.523,232.696ZM259.244,367.105C233.423,367.105 212.493,346.175 212.493,320.353C212.493,294.534 233.424,273.603 259.244,273.603C285.065,273.603 305.995,294.534 305.995,320.353C305.995,346.176 285.065,367.105 259.244,367.105Z" style="fill:rgb(167,137,102);fill-rule:nonzero;"/>
        <path d="M154.056,162.57L124.834,162.57C105.471,162.57 89.771,178.269 89.771,197.633C89.771,216.999 105.47,232.696 124.834,232.696L154.056,232.696L154.056,168.414L165.742,168.414L165.742,162.57L154.056,162.57Z" style="fill:rgb(87,86,92);fill-rule:nonzero;"/>
        <path d="M422.873,162.57L394.063,162.57L414.75,198.417C416.364,201.212 415.407,204.786 412.612,206.4L367.065,232.696L428.716,232.696L428.716,168.414C428.717,165.188 426.1,162.57 422.873,162.57Z" style="fill:rgb(87,86,92);fill-rule:nonzero;"/>
        <path d="M414.75,198.417L394.063,162.57L338.78,66.823C337.167,64.031 333.592,63.072 330.798,64.684L161.242,162.57L118.215,187.408C115.417,189.019 114.457,192.59 116.068,195.388L116.071,195.391L137.633,232.698L178.132,232.698L161.069,203.185L201.508,179.81L219.038,210.141L180.003,232.698L367.066,232.698L412.613,206.399C415.407,204.786 416.364,201.212 414.75,198.417ZM282.508,133.042C287.591,130.089 293.819,129.892 299.075,132.522C299.683,122.858 308.008,115.517 317.672,116.122C327.335,116.729 334.676,125.054 334.071,134.717C333.464,144.381 325.137,151.722 315.475,151.118C313.145,150.97 310.867,150.36 308.775,149.323C308.168,158.987 299.841,166.326 290.177,165.718C280.512,165.111 273.174,156.784 273.781,147.12C274.152,141.262 277.427,135.977 282.508,133.042Z" style="fill:rgb(255,182,85);fill-rule:nonzero;"/>
        <path d="M306.456,139.465C308.171,142.457 308.982,145.881 308.793,149.322C317.467,153.628 327.989,150.088 332.295,141.415C336.6,132.744 333.061,122.222 324.387,117.916C315.714,113.61 305.195,117.15 300.889,125.824C299.852,127.913 299.242,130.192 299.094,132.521C302.166,134.079 304.724,136.489 306.456,139.465Z" style="fill:rgb(255,222,85);fill-rule:nonzero;"/>
        <path d="M300.04,163.411C305.138,160.484 308.421,155.19 308.778,149.322C309.208,142.283 305.387,135.666 299.075,132.521C290.402,128.215 279.883,131.756 275.577,140.429C271.274,149.102 274.813,159.625 283.487,163.928C288.745,166.538 294.957,166.343 300.04,163.411Z" style="fill:rgb(255,98,67);fill-rule:nonzero;"/>
        <path d="M201.508,179.811L161.067,203.186L178.131,232.697L180,232.697L219.038,210.14L201.508,179.811Z" style="fill:rgb(255,228,119);fill-rule:nonzero;"/>
        <path d="M305.995,320.354C305.995,346.176 285.065,367.106 259.244,367.106C233.423,367.106 212.493,346.176 212.493,320.354C212.493,294.537 233.424,273.604 259.244,273.604C285.065,273.604 305.995,294.536 305.995,320.354Z" style="fill:rgb(255,212,34);fill-rule:nonzero;"/>
        <path d="M363.384,176.597L266.198,232.697L260.822,232.697L256.322,224.926L357.538,166.486L363.384,176.597Z" style="fill:rgb(209,211,212);fill-rule:nonzero;"/>
        <path d="M375.069,196.873L313.065,232.696L301.32,232.696L298.398,227.612L369.227,186.705L375.069,196.873Z" style="fill:rgb(209,211,212);fill-rule:nonzero;"/>
        <g>
            <rect x="282.619" y="314.51" width="11.688" height="11.688" style="fill:rgb(255,98,67);fill-rule:nonzero;"/>
            <rect x="224.182" y="314.51" width="11.688" height="11.688" style="fill:rgb(255,98,67);fill-rule:nonzero;"/>
            <g transform="matrix(2.45254,0,0,2.54866,-231.771,-607.002)">
                <text x="192.306px" y="366.962px" style="font-family:'ArialMT', 'Arial', sans-serif;font-size:12px;fill:rgb(255,98,67);">Rp</text>
            </g>
        </g>
    </g>
</svg>
